;FLAVOR:RepRap
;TIME:497
;Filament used: 0.110754m
;Layer height: 0.15
;MINX:-9.4
;MINY:-9.4
;MINZ:0.3
;MAXX:9.4
;MAXY:9.4
;MAXZ:10.05
;Generated with Cura_SteamEngine 5.2.1
T0
M104 S200
M109 S200
M82 ;absolute extrusion mode

M83 ;relative extrusion mode
G1 F30000 E-4.1
;LAYER_COUNT:66
;LAYER:0
M107
G1 F600 Z0.5
G0 F3600 X9.4 Y4.318 Z0.5
;TYPE:SKIRT
G1 F600 Z0.3
G1 F30000 E4.1
G1 F900 X9.391 Y5.045 E0.01814
G1 X9.343 Y5.637 E0.01482
G1 X9.217 Y6.216 E0.01478
G1 X9.014 Y6.773 E0.01479
G1 X8.738 Y7.298 E0.0148
G1 X8.394 Y7.781 E0.01479
G1 X7.988 Y8.213 E0.01479
G1 X7.527 Y8.586 E0.01479
G1 X7.021 Y8.895 E0.01479
G1 X6.478 Y9.132 E0.01478
G1 X5.907 Y9.295 E0.01481
G1 X5.021 Y9.4 E0.02226
G1 X-4.35 Y9.4 E0.23376
G1 X-5.048 Y9.391 E0.01741
G1 X-5.639 Y9.343 E0.01479
G1 X-6.218 Y9.216 E0.01479
G1 X-6.775 Y9.013 E0.01479
G1 X-7.3 Y8.737 E0.0148
G1 X-7.782 Y8.392 E0.01479
G1 X-8.214 Y7.986 E0.01479
G1 X-8.588 Y7.525 E0.01481
G1 X-8.896 Y7.019 E0.01478
G1 X-9.133 Y6.475 E0.0148
G1 X-9.295 Y5.905 E0.01478
G1 X-9.4 Y5.017 E0.02231
G1 X-9.4 Y-4.386 E0.23456
G1 X-9.391 Y-5.051 E0.01659
G1 X-9.343 Y-5.642 E0.01479
G1 X-9.216 Y-6.221 E0.01479
G1 X-9.012 Y-6.778 E0.0148
G1 X-8.735 Y-7.302 E0.01479
G1 X-8.39 Y-7.784 E0.01479
G1 X-7.984 Y-8.216 E0.01479
G1 X-7.523 Y-8.589 E0.01479
G1 X-7.016 Y-8.897 E0.0148
G1 X-6.473 Y-9.134 E0.01478
G1 X-5.902 Y-9.296 E0.01481
G1 X-5.021 Y-9.4 E0.02213
G1 X4.356 Y-9.4 E0.23391
G1 X5.054 Y-9.39 E0.01741
G1 X5.645 Y-9.341 E0.01479
G1 X6.224 Y-9.214 E0.01479
G1 X6.781 Y-9.01 E0.0148
G1 X7.305 Y-8.732 E0.0148
G1 X7.787 Y-8.387 E0.01479
G1 X8.219 Y-7.98 E0.01481
G1 X8.591 Y-7.519 E0.01478
G1 X8.899 Y-7.012 E0.0148
G1 X9.135 Y-6.468 E0.01479
G1 X9.296 Y-5.898 E0.01478
G1 X9.4 Y-5.021 E0.02203
G1 X9.4 Y4.318 E0.23296
G0 F3600 X9 Y4.314
G1 F900 X8.991 Y5.041 E0.01814
G1 X8.944 Y5.604 E0.01409
G1 X8.818 Y6.155 E0.0141
G1 X8.616 Y6.683 E0.0141
G1 X8.341 Y7.177 E0.0141
G1 X7.999 Y7.627 E0.0141
G1 X7.597 Y8.025 E0.01411
G1 X7.144 Y8.362 E0.01408
G1 X6.647 Y8.632 E0.01411
G1 X6.117 Y8.829 E0.0141
G1 X5.565 Y8.95 E0.0141
G1 X4.973 Y9 E0.01482
G1 X-4.345 Y9 E0.23244
G1 X-5.043 Y8.991 E0.01741
G1 X-5.606 Y8.943 E0.0141
G1 X-6.157 Y8.817 E0.0141
G1 X-6.685 Y8.615 E0.0141
G1 X-7.179 Y8.34 E0.0141
G1 X-7.629 Y7.998 E0.0141
G1 X-8.027 Y7.596 E0.01411
G1 X-8.363 Y7.142 E0.01409
G1 X-8.633 Y6.645 E0.01411
G1 X-8.83 Y6.115 E0.0141
G1 X-8.95 Y5.563 E0.01409
G1 X-8.999 Y4.995 E0.01422
G1 X-9 Y-4.38 E0.23386
G1 X-8.991 Y-5.045 E0.01659
G1 X-8.943 Y-5.608 E0.0141
G1 X-8.817 Y-6.159 E0.0141
G1 X-8.614 Y-6.687 E0.01411
G1 X-8.338 Y-7.181 E0.01412
G1 X-7.996 Y-7.631 E0.0141
G1 X-7.594 Y-8.028 E0.01409
G1 X-7.14 Y-8.365 E0.0141
G1 X-6.643 Y-8.634 E0.0141
G1 X-6.113 Y-8.831 E0.0141
G1 X-5.56 Y-8.95 E0.01411
G1 X-4.974 Y-9 E0.01467
G1 X4.35 Y-9 E0.23259
G1 X5.048 Y-8.99 E0.01741
G1 X5.612 Y-8.942 E0.01412
G1 X6.162 Y-8.815 E0.01408
G1 X6.69 Y-8.611 E0.01412
G1 X7.184 Y-8.336 E0.0141
G1 X7.633 Y-7.993 E0.01409
G1 X8.03 Y-7.591 E0.01409
G1 X8.367 Y-7.136 E0.01412
G1 X8.635 Y-6.639 E0.01409
G1 X8.831 Y-6.109 E0.0141
G1 X8.951 Y-5.556 E0.01412
G1 X9 Y-4.971 E0.01464
G1 X9 Y4.314 E0.23162
G0 F3600 X8.6 Y4.309
G1 F900 X8.591 Y5.036 E0.01814
G1 X8.544 Y5.57 E0.01337
G1 X8.419 Y6.091 E0.01337
G1 X8.217 Y6.588 E0.01338
G1 X7.944 Y7.05 E0.01339
G1 X7.606 Y7.466 E0.01337
G1 X7.209 Y7.827 E0.01339
G1 X6.763 Y8.125 E0.01338
G1 X6.278 Y8.353 E0.01337
G1 X5.764 Y8.507 E0.01338
G1 X5.019 Y8.599 E0.01873
G1 X-4.339 Y8.6 E0.23344
G1 X-5.037 Y8.591 E0.01741
G1 X-5.572 Y8.544 E0.0134
G1 X-6.093 Y8.418 E0.01337
G1 X-6.59 Y8.216 E0.01338
G1 X-7.051 Y7.943 E0.01336
G1 X-7.467 Y7.604 E0.01339
G1 X-7.828 Y7.208 E0.01337
G1 X-8.126 Y6.762 E0.01338
G1 X-8.354 Y6.276 E0.01339
G1 X-8.507 Y5.762 E0.01338
G1 X-8.599 Y5.015 E0.01877
G1 X-8.6 Y-4.375 E0.23423
G1 X-8.591 Y-5.04 E0.01659
G1 X-8.543 Y-5.574 E0.01337
G1 X-8.417 Y-6.095 E0.01337
G1 X-8.215 Y-6.592 E0.01338
G1 X-7.942 Y-7.053 E0.01336
G1 X-7.603 Y-7.469 E0.01339
G1 X-7.206 Y-7.829 E0.01337
G1 X-6.759 Y-8.127 E0.0134
G1 X-6.274 Y-8.355 E0.01337
G1 X-5.76 Y-8.508 E0.01338
G1 X-5.019 Y-8.599 E0.01862
G1 X4.345 Y-8.6 E0.23359
G1 X5.043 Y-8.59 E0.01741
G1 X5.577 Y-8.542 E0.01337
G1 X6.098 Y-8.416 E0.01337
G1 X6.595 Y-8.213 E0.01339
G1 X7.056 Y-7.939 E0.01338
G1 X7.471 Y-7.6 E0.01337
G1 X7.831 Y-7.202 E0.01339
G1 X8.128 Y-6.756 E0.01337
G1 X8.356 Y-6.27 E0.01339
G1 X8.508 Y-5.756 E0.01337
G1 X8.599 Y-5.018 E0.01855
G1 X8.6 Y4.309 E0.23266
G0 F3600 X8.2 Y4.304
G1 F900 X8.191 Y5.031 E0.01814
G1 X8.145 Y5.534 E0.0126
G1 X8.02 Y6.024 E0.01261
G1 X7.819 Y6.488 E0.01261
G1 X7.548 Y6.915 E0.01262
G1 X7.213 Y7.294 E0.01262
G1 X6.823 Y7.615 E0.0126
G1 X6.387 Y7.871 E0.01261
G1 X5.916 Y8.054 E0.0126
G1 X5.422 Y8.162 E0.01261
G1 X4.972 Y8.199 E0.01126
G1 X-4.334 Y8.2 E0.23214
G1 X-5.032 Y8.191 E0.01741
G1 X-5.536 Y8.144 E0.01263
G1 X-6.026 Y8.019 E0.01261
G1 X-6.49 Y7.818 E0.01261
G1 X-6.916 Y7.547 E0.01259
G1 X-7.295 Y7.212 E0.01262
G1 X-7.616 Y6.821 E0.01262
G1 X-7.871 Y6.385 E0.0126
G1 X-8.055 Y5.914 E0.01261
G1 X-8.162 Y5.42 E0.01261
G1 X-8.199 Y4.967 E0.01134
G1 X-8.2 Y-4.369 E0.23289
G1 X-8.191 Y-5.034 E0.01659
G1 X-8.144 Y-5.538 E0.01263
G1 X-8.018 Y-6.027 E0.0126
G1 X-7.817 Y-6.491 E0.01261
G1 X-7.546 Y-6.918 E0.01262
G1 X-7.211 Y-7.296 E0.0126
G1 X-6.82 Y-7.617 E0.01262
G1 X-6.383 Y-7.872 E0.01262
G1 X-5.912 Y-8.056 E0.01261
G1 X-5.418 Y-8.162 E0.0126
G1 X-4.973 Y-8.199 E0.01114
G1 X4.339 Y-8.2 E0.23229
G1 X5.037 Y-8.19 E0.01741
G1 X5.54 Y-8.143 E0.0126
G1 X6.03 Y-8.017 E0.01262
G1 X6.494 Y-7.815 E0.01262
G1 X6.92 Y-7.543 E0.01261
G1 X7.298 Y-7.208 E0.0126
G1 X7.618 Y-6.817 E0.0126
G1 X7.873 Y-6.38 E0.01262
G1 X8.056 Y-5.909 E0.0126
G1 X8.163 Y-5.415 E0.01261
G1 X8.199 Y-4.76 E0.01636
G1 X8.2 Y4.304 E0.2261
G1 F30000 E-4.1
;MESH:3DFP Test Cube.STL
G0 F3600 X5.665 Y4.304
G0 X4.58 Y4.304
G0 X-4.13 Y-4.13
G1 F30000 E4.1
G0 F3600 X-4.4 Y-4.4
;TYPE:WALL-INNER
G1 F900 X-4.4 Y4.4 E0.21952
G1 X4.4 Y4.4 E0.21952
G1 X4.4 Y0.00 E0.10976
G1 X4.4 Y-4.4 E0.10976
G1 X-4.4 Y-4.4 E0.21952
G0 F3600 X-4.8 Y-4.8
;TYPE:WALL-OUTER
G1 F900 X-4.8 Y4.8 E0.23947
G1 X4.8 Y4.8 E0.23947
G1 X4.8 Y0.00 E0.11974
G1 X4.8 Y-4.8 E0.11974
G1 X-4.8 Y-4.8 E0.23947
G0 F3600 X-4.8 Y-4.6
G0 X-4.02 Y-4.02
;TYPE:SKIN
G1 F900 X-4.02 Y4.02 E0.20056
G1 X4.02 Y4.02 E0.20056
G1 X4.02 Y0.00 E0.10028
G1 X4.02 Y-4.02 E0.10028
G1 X-4.02 Y-4.02 E0.20056
G0 F3600 X3.534 Y-3.819
G1 F900 X3.819 Y-3.534 E0.01005
G0 F3600 X3.819 Y-2.968
G1 F900 X2.968 Y-3.819 E0.03002
G0 F3600 X2.402 Y-3.819
G1 F900 X3.819 Y-2.402 E0.04999
G0 F3600 X3.819 Y-1.837
G1 F900 X1.837 Y-3.819 E0.06992
G0 F3600 X1.271 Y-3.819
G1 F900 X3.819 Y-1.271 E0.08989
G0 F3600 X3.819 Y-.705
G1 F900 X0.705 Y-3.819 E0.10985
G0 F3600 X0.14 Y-3.819
G1 F900 X3.819 Y-.14 E0.12979
G0 F3600 X3.819 Y0.425
G1 F900 X-.425 Y-3.819 E0.14972
G0 F3600 X-.991 Y-3.819
G1 F900 X3.819 Y0.991 E0.16969
G0 F3600 X3.819 Y1.557
G1 F900 X-1.557 Y-3.819 E0.18965
G0 F3600 X-2.122 Y-3.819
G1 F900 X3.819 Y2.122 E0.20958
G0 F3600 X3.819 Y2.688
G1 F900 X-2.688 Y-3.819 E0.22955
G0 F3600 X-3.254 Y-3.819
G1 F900 X3.819 Y3.254 E0.24952
G0 F3600 X3.819 Y3.819
G1 F900 X-3.819 Y-3.819 E0.26945
G0 F3600 X-3.819 Y-3.254
G1 F900 X3.254 Y3.819 E0.24952
G0 F3600 X2.688 Y3.819
G1 F900 X-3.819 Y-2.688 E0.22955
G0 F3600 X-3.819 Y-2.122
G1 F900 X2.122 Y3.819 E0.20958
G0 F3600 X1.557 Y3.819
G1 F900 X-3.819 Y-1.557 E0.18965
G0 F3600 X-3.819 Y-.991
G1 F900 X0.991 Y3.819 E0.16969
G0 F3600 X0.425 Y3.819
G1 F900 X-3.819 Y-.425 E0.14972
G0 F3600 X-3.819 Y0.14
G1 F900 X-.14 Y3.819 E0.12979
G0 F3600 X-.705 Y3.819
G1 F900 X-3.819 Y0.705 E0.10985
G0 F3600 X-3.819 Y1.271
G1 F900 X-1.271 Y3.819 E0.08989
G0 F3600 X-1.837 Y3.819
G1 F900 X-3.819 Y1.837 E0.06992
G0 F3600 X-3.819 Y2.402
G1 F900 X-2.402 Y3.819 E0.04999
G0 F3600 X-2.968 Y3.819
G1 F900 X-3.819 Y2.968 E0.03002
G0 F3600 X-3.819 Y3.534
G1 F900 X-3.534 Y3.819 E0.01005
G0 F3600 X-3.534 Y3.8
;MESH:NONMESH
G0 F600 X-3.534 Y3.8 Z0.45
G0 F3600 X-4.13 Y-4.13
G0 X-4.4 Y-4.4
;TIME_ELAPSED:37.126037
;LAYER:1
;TYPE:WALL-INNER
;MESH:3DFP Test Cube.STL
G1 F1350 X-4.4 Y4.4 E0.10976
G1 X4.4 Y4.4 E0.10976
G1 X4.4 Y0.00 E0.05488
G1 X4.4 Y-4.4 E0.05488
G1 X-4.4 Y-4.4 E0.10976
G0 F5400 X-4.8 Y-4.8
;TYPE:WALL-OUTER
G1 F900 X-4.8 Y4.8 E0.11974
G1 X4.8 Y4.8 E0.11974
G1 X4.8 Y0.00 E0.05987
G1 X4.8 Y-4.8 E0.05987
G1 X-4.8 Y-4.8 E0.11974
G0 F5400 X-4.8 Y-4.6
G0 X-4.02 Y-4.02
;TYPE:SKIN
G1 F900 X-4.02 Y4.02 E0.10028
G1 X4.02 Y4.02 E0.10028
G1 X4.02 Y0.00 E0.05014
G1 X4.02 Y-4.02 E0.05014
G1 X-4.02 Y-4.02 E0.10028
G0 F5400 X-3.819 Y-3.534
G1 F900 X-3.534 Y-3.819 E0.00503
G0 F5400 X-2.968 Y-3.819
G1 F900 X-3.819 Y-2.968 E0.01501
G0 F5400 X-3.819 Y-2.402
G1 F900 X-2.402 Y-3.819 E0.02499
G0 F5400 X-1.837 Y-3.819
G1 F900 X-3.819 Y-1.837 E0.03496
G0 F5400 X-3.819 Y-1.271
G1 F900 X-1.271 Y-3.819 E0.04494
G0 F5400 X-.705 Y-3.819
G1 F900 X-3.819 Y-.705 E0.05493
G0 F5400 X-3.819 Y-.14
G1 F900 X-.14 Y-3.819 E0.06489
G0 F5400 X0.425 Y-3.819
G1 F900 X-3.819 Y0.425 E0.07486
G0 F5400 X-3.819 Y0.991
G1 F900 X0.991 Y-3.819 E0.08484
G0 F5400 X1.557 Y-3.819
G1 F900 X-3.819 Y1.557 E0.09483
G0 F5400 X-3.819 Y2.122
G1 F900 X2.122 Y-3.819 E0.10479
G0 F5400 X2.688 Y-3.819
G1 F900 X-3.819 Y2.688 E0.11478
G0 F5400 X-3.819 Y3.254
G1 F900 X3.254 Y-3.819 E0.12476
G0 F5400 X3.819 Y-3.819
G1 F900 X-3.819 Y3.819 E0.13473
G0 F5400 X-3.254 Y3.819
G1 F900 X3.819 Y-3.254 E0.12476
G0 F5400 X3.819 Y-2.688
G1 F900 X-2.688 Y3.819 E0.11478
G0 F5400 X-2.122 Y3.819
G1 F900 X3.819 Y-2.122 E0.10479
G0 F5400 X3.819 Y-1.557
G1 F900 X-1.557 Y3.819 E0.09483
G0 F5400 X-.991 Y3.819
G1 F900 X3.819 Y-.991 E0.08484
G0 F5400 X3.819 Y-.425
G1 F900 X-.425 Y3.819 E0.07486
G0 F5400 X0.14 Y3.819
G1 F900 X3.819 Y0.14 E0.06489
G0 F5400 X3.819 Y0.705
G1 F900 X0.705 Y3.819 E0.05493
G0 F5400 X1.271 Y3.819
G1 F900 X3.819 Y1.271 E0.04494
G0 F5400 X3.819 Y1.837
G1 F900 X1.837 Y3.819 E0.03496
G0 F5400 X2.402 Y3.819
G1 F900 X3.819 Y2.402 E0.02499
G0 F5400 X3.819 Y2.968
G1 F900 X2.968 Y3.819 E0.01501
G0 F5400 X3.534 Y3.819
G1 F900 X3.819 Y3.534 E0.00503
G0 F5400 X3.8 Y3.534
;MESH:NONMESH
G0 F600 X3.8 Y3.534 Z0.6
G0 F5400 X-4.13 Y-4.13
G0 X-4.4 Y-4.4
;TIME_ELAPSED:53.959553
;LAYER:2
;TYPE:WALL-INNER
;MESH:3DFP Test Cube.STL
G1 F1800 X-4.4 Y4.4 E0.10976
G1 X4.4 Y4.4 E0.10976
G1 X4.4 Y0.00 E0.05488
G1 X4.4 Y-4.4 E0.05488
G1 X-4.4 Y-4.4 E0.10976
G0 F7200 X-4.8 Y-4.8
;TYPE:WALL-OUTER
G1 F900 X-4.8 Y4.8 E0.11974
G1 X4.8 Y4.8 E0.11974
G1 X4.8 Y0.00 E0.05987
G1 X4.8 Y-4.8 E0.05987
G1 X-4.8 Y-4.8 E0.11974
G0 F7200 X-4.8 Y-4.6
G0 X-4.02 Y-4.02
;TYPE:SKIN
G1 F900 X-4.02 Y4.02 E0.10028
G1 X4.02 Y4.02 E0.10028
G1 X4.02 Y0.00 E0.05014
G1 X4.02 Y-4.02 E0.05014
G1 X-4.02 Y-4.02 E0.10028
G0 F7200 X3.534 Y-3.819
G1 F900 X3.819 Y-3.534 E0.00503
G0 F7200 X3.819 Y-2.968
G1 F900 X2.968 Y-3.819 E0.01501
G0 F7200 X2.402 Y-3.819
G1 F900 X3.819 Y-2.402 E0.02499
G0 F7200 X3.819 Y-1.837
G1 F900 X1.837 Y-3.819 E0.03496
G0 F7200 X1.271 Y-3.819
G1 F900 X3.819 Y-1.271 E0.04494
G0 F7200 X3.819 Y-.705
G1 F900 X0.705 Y-3.819 E0.05493
G0 F7200 X0.14 Y-3.819
G1 F900 X3.819 Y-.14 E0.06489
G0 F7200 X3.819 Y0.425
G1 F900 X-.425 Y-3.819 E0.07486
G0 F7200 X-.991 Y-3.819
G1 F900 X3.819 Y0.991 E0.08484
G0 F7200 X3.819 Y1.557
G1 F900 X-1.557 Y-3.819 E0.09483
G0 F7200 X-2.122 Y-3.819
G1 F900 X3.819 Y2.122 E0.10479
G0 F7200 X3.819 Y2.688
G1 F900 X-2.688 Y-3.819 E0.11478
G0 F7200 X-3.254 Y-3.819
G1 F900 X3.819 Y3.254 E0.12476
G0 F7200 X3.819 Y3.819
G1 F900 X-3.819 Y-3.819 E0.13473
G0 F7200 X-3.819 Y-3.254
G1 F900 X3.254 Y3.819 E0.12476
G0 F7200 X2.688 Y3.819
G1 F900 X-3.819 Y-2.688 E0.11478
G0 F7200 X-3.819 Y-2.122
G1 F900 X2.122 Y3.819 E0.10479
G0 F7200 X1.557 Y3.819
G1 F900 X-3.819 Y-1.557 E0.09483
G0 F7200 X-3.819 Y-.991
G1 F900 X0.991 Y3.819 E0.08484
G0 F7200 X0.425 Y3.819
G1 F900 X-3.819 Y-.425 E0.07486
G0 F7200 X-3.819 Y0.14
G1 F900 X-.14 Y3.819 E0.06489
G0 F7200 X-.705 Y3.819
G1 F900 X-3.819 Y0.705 E0.05493
G0 F7200 X-3.819 Y1.271
G1 F900 X-1.271 Y3.819 E0.04494
G0 F7200 X-1.837 Y3.819
G1 F900 X-3.819 Y1.837 E0.03496
G0 F7200 X-3.819 Y2.402
G1 F900 X-2.402 Y3.819 E0.02499
G0 F7200 X-2.968 Y3.819
G1 F900 X-3.819 Y2.968 E0.01501
G0 F7200 X-3.819 Y3.534
G1 F900 X-3.534 Y3.819 E0.00503
G0 F7200 X-3.534 Y3.8
;MESH:NONMESH
G0 F600 X-3.534 Y3.8 Z0.75
G0 F7200 X-4.13 Y-4.13
G0 X-4.4 Y-4.4
;TIME_ELAPSED:70.440301
;LAYER:3
;TYPE:WALL-INNER
;MESH:3DFP Test Cube.STL
G1 F1800 X-4.4 Y4.4 E0.10976
G1 X4.4 Y4.4 E0.10976
G1 X4.4 Y0.00 E0.05488
G1 X4.4 Y-4.4 E0.05488
G1 X-4.4 Y-4.4 E0.10976
G0 F7200 X-4.8 Y-4.8
;TYPE:WALL-OUTER
G1 F900 X-4.8 Y4.8 E0.11974
G1 X4.8 Y4.8 E0.11974
G1 X4.8 Y0.00 E0.05987
G1 X4.8 Y-4.8 E0.05987
G1 X-4.8 Y-4.8 E0.11974
G0 F7200 X-4.8 Y-4.6
G0 X-4.02 Y-4.02
;TYPE:SKIN
G1 F900 X-4.02 Y4.02 E0.10028
G1 X4.02 Y4.02 E0.10028
G1 X4.02 Y-4.02 E0.10028
G1 X-4.02 Y-4.02 E0.10028
G0 F7200 X-3.819 Y-3.534
G1 F900 X-3.534 Y-3.819 E0.00503
G0 F7200 X-2.968 Y-3.819
G1 F900 X-3.819 Y-2.968 E0.01501
G0 F7200 X-3.819 Y-2.402
G1 F900 X-2.402 Y-3.819 E0.02499
G0 F7200 X-1.837 Y-3.819
G1 F900 X-3.819 Y-1.837 E0.03496
G0 F7200 X-3.819 Y-1.271
G1 F900 X-1.271 Y-3.819 E0.04494
G0 F7200 X-.705 Y-3.819
G1 F900 X-3.819 Y-.705 E0.05493
G0 F7200 X-3.819 Y-.14
G1 F900 X-.14 Y-3.819 E0.06489
G0 F7200 X0.425 Y-3.819
G1 F900 X-3.819 Y0.425 E0.07486
G0 F7200 X-3.819 Y0.991
G1 F900 X0.991 Y-3.819 E0.08484
G0 F7200 X1.557 Y-3.819
G1 F900 X-3.819 Y1.557 E0.09483
G0 F7200 X-3.819 Y2.122
G1 F900 X2.122 Y-3.819 E0.10479
G0 F7200 X2.688 Y-3.819
G1 F900 X-3.819 Y2.688 E0.11478
G0 F7200 X-3.819 Y3.254
G1 F900 X3.254 Y-3.819 E0.12476
G0 F7200 X3.819 Y-3.819
G1 F900 X-3.819 Y3.819 E0.13473
G0 F7200 X-3.254 Y3.819
G1 F900 X3.819 Y-3.254 E0.12476
G0 F7200 X3.819 Y-2.688
G1 F900 X-2.688 Y3.819 E0.11478
G0 F7200 X-2.122 Y3.819
G1 F900 X3.819 Y-2.122 E0.10479
G0 F7200 X3.819 Y-1.557
G1 F900 X-1.557 Y3.819 E0.09483
G0 F7200 X-.991 Y3.819
G1 F900 X3.819 Y-.991 E0.08484
G0 F7200 X3.819 Y-.425
G1 F900 X-.425 Y3.819 E0.07486
G0 F7200 X0.14 Y3.819
G1 F900 X3.819 Y0.14 E0.06489
G0 F7200 X3.819 Y0.705
G1 F900 X0.705 Y3.819 E0.05493
G0 F7200 X1.271 Y3.819
G1 F900 X3.819 Y1.271 E0.04494
G0 F7200 X3.819 Y1.837
G1 F900 X1.837 Y3.819 E0.03496
G0 F7200 X2.402 Y3.819
G1 F900 X3.819 Y2.402 E0.02499
G0 F7200 X3.819 Y2.968
G1 F900 X2.968 Y3.819 E0.01501
G0 F7200 X3.534 Y3.819
G1 F900 X3.819 Y3.534 E0.00503
G0 F7200 X3.8 Y3.534
;MESH:NONMESH
G0 F600 X3.8 Y3.534 Z0.9
G0 F7200 X-4.13 Y-4.13
G0 X-4.4 Y-4.4
;TIME_ELAPSED:86.871858
;LAYER:4
;TYPE:WALL-INNER
;MESH:3DFP Test Cube.STL
G1 F1800 X-4.4 Y4.4 E0.10976
G1 X4.4 Y4.4 E0.10976
G1 X4.4 Y0.00 E0.05488
G1 X4.4 Y-4.4 E0.05488
G1 X-4.4 Y-4.4 E0.10976
G0 F7200 X-4.8 Y-4.8
;TYPE:WALL-OUTER
G1 F900 X-4.8 Y4.8 E0.11974
G1 X4.8 Y4.8 E0.11974
G1 X4.8 Y0.00 E0.05987
G1 X4.8 Y-4.8 E0.05987
G1 X-4.8 Y-4.8 E0.11974
G0 F7200 X-4.8 Y-4.6
G0 X-4.02 Y-4.02
;TYPE:SKIN
G1 F900 X-4.02 Y4.02 E0.10028
G1 X4.02 Y4.02 E0.10028
G1 X4.02 Y0.00 E0.05014
G1 X4.02 Y-4.02 E0.05014
G1 X-4.02 Y-4.02 E0.10028
G0 F7200 X3.534 Y-3.819
G1 F900 X3.819 Y-3.534 E0.00503
G0 F7200 X3.819 Y-2.968
G1 F900 X2.968 Y-3.819 E0.01501
G0 F7200 X2.402 Y-3.819
G1 F900 X3.819 Y-2.402 E0.02499
G0 F7200 X3.819 Y-1.837
G1 F900 X1.837 Y-3.819 E0.03496
G0 F7200 X1.271 Y-3.819
G1 F900 X3.819 Y-1.271 E0.04494
G0 F7200 X3.819 Y-.705
G1 F900 X0.705 Y-3.819 E0.05493
G0 F7200 X0.14 Y-3.819
G1 F900 X3.819 Y-.14 E0.06489
G0 F7200 X3.819 Y0.425
G1 F900 X-.425 Y-3.819 E0.07486
G0 F7200 X-.991 Y-3.819
G1 F900 X3.819 Y0.991 E0.08484
G0 F7200 X3.819 Y1.557
G1 F900 X-1.557 Y-3.819 E0.09483
G0 F7200 X-2.122 Y-3.819
G1 F900 X3.819 Y2.122 E0.10479
G0 F7200 X3.819 Y2.688
G1 F900 X-2.688 Y-3.819 E0.11478
G0 F7200 X-3.254 Y-3.819
G1 F900 X3.819 Y3.254 E0.12476
G0 F7200 X3.819 Y3.819
G1 F900 X-3.819 Y-3.819 E0.13473
G0 F7200 X-3.819 Y-3.254
G1 F900 X3.254 Y3.819 E0.12476
G0 F7200 X2.688 Y3.819
G1 F900 X-3.819 Y-2.688 E0.11478
G0 F7200 X-3.819 Y-2.122
G1 F900 X2.122 Y3.819 E0.10479
G0 F7200 X1.557 Y3.819
G1 F900 X-3.819 Y-1.557 E0.09483
G0 F7200 X-3.819 Y-.991
G1 F900 X0.991 Y3.819 E0.08484
G0 F7200 X0.425 Y3.819
G1 F900 X-3.819 Y-.425 E0.07486
G0 F7200 X-3.819 Y0.14
G1 F900 X-.14 Y3.819 E0.06489
