;FLAVOR:RepRap
;TIME:35
;Filament used: 0.0125198m
;Layer height: 0.15
;MINX:-23.05
;MINY:-5
;MINZ:0.3
;MAXX:23.05
;MAXY:5
;MAXZ:0.5
;Generated with Cura_SteamEngine 5.2.1
T0
M104 S200
M109 S200
M82 ;absolute extrusion mode

M83 ;relative extrusion mode
G1 F30000 E-4.1
;LAYER_COUNT:1
;LAYER:0
M107
G1 F600 Z0.5
G0 F3600 X-18.395 Y5 Z0.5
;TYPE:SKIRT
G1 F600 Z0.3
G1 F30000 E4.1
G1 F900 X-19.093 Y4.991 E0.01741
G1 X-19.656 Y4.943 E0.0141
G1 X-20.207 Y4.817 E0.0141
G1 X-20.735 Y4.615 E0.0141
G1 X-21.229 Y4.34 E0.0141
G1 X-21.679 Y3.998 E0.0141
G1 X-22.077 Y3.596 E0.01411
G1 X-22.413 Y3.142 E0.01409
G1 X-22.683 Y2.645 E0.01411
G1 X-22.88 Y2.115 E0.0141
G1 X-23 Y1.563 E0.01409
G1 X-23.049 Y0.997 E0.01417
G1 X-23.05 Y-.38 E0.03435
G1 X-23.041 Y-1.045 E0.01659
G1 X-22.993 Y-1.608 E0.0141
G1 X-22.867 Y-2.159 E0.0141
G1 X-22.664 Y-2.687 E0.01411
G1 X-22.388 Y-3.181 E0.01412
G1 X-22.046 Y-3.631 E0.0141
G1 X-21.644 Y-4.028 E0.01409
G1 X-21.19 Y-4.365 E0.0141
G1 X-20.693 Y-4.634 E0.0141
G1 X-20.163 Y-4.831 E0.0141
G1 X-19.61 Y-4.95 E0.01411
G1 X-19.024 Y-5 E0.01467
G1 X18.4 Y-5 E0.93355
G1 X19.098 Y-4.99 E0.01741
G1 X19.662 Y-4.942 E0.01412
G1 X20.212 Y-4.815 E0.01408
G1 X20.74 Y-4.611 E0.01412
G1 X21.234 Y-4.336 E0.0141
G1 X21.683 Y-3.993 E0.01409
G1 X22.08 Y-3.591 E0.01409
G1 X22.417 Y-3.136 E0.01412
G1 X22.685 Y-2.639 E0.01409
G1 X22.881 Y-2.109 E0.0141
G1 X23.001 Y-1.556 E0.01412
G1 X23.05 Y-.971 E0.01464
G1 X23.05 Y0.31 E0.03195
G1 X23.041 Y1.04 E0.01821
G1 X22.994 Y1.604 E0.01412
G1 X22.868 Y2.155 E0.0141
G1 X22.666 Y2.683 E0.0141
G1 X22.391 Y3.177 E0.0141
G1 X22.049 Y3.627 E0.0141
G1 X21.648 Y4.025 E0.01409
G1 X21.194 Y4.362 E0.0141
G1 X20.697 Y4.632 E0.01411
G1 X20.167 Y4.829 E0.0141
G1 X19.615 Y4.95 E0.0141
G1 X19.023 Y5 E0.01482
G1 X-18.395 Y5 E0.9334
G0 F3600 X-18.389 Y4.6
G1 F900 X-19.087 Y4.591 E0.01741
G1 X-19.622 Y4.544 E0.0134
G1 X-20.143 Y4.418 E0.01337
G1 X-20.64 Y4.216 E0.01338
G1 X-21.101 Y3.943 E0.01336
G1 X-21.517 Y3.604 E0.01339
G1 X-21.878 Y3.208 E0.01337
G1 X-22.176 Y2.762 E0.01338
G1 X-22.404 Y2.276 E0.01339
G1 X-22.557 Y1.762 E0.01338
G1 X-22.649 Y1.017 E0.01873
G1 X-22.65 Y-.375 E0.03472
G1 X-22.641 Y-1.04 E0.01659
G1 X-22.593 Y-1.574 E0.01337
G1 X-22.467 Y-2.095 E0.01337
G1 X-22.265 Y-2.592 E0.01338
G1 X-21.992 Y-3.053 E0.01336
G1 X-21.653 Y-3.469 E0.01339
G1 X-21.256 Y-3.829 E0.01337
G1 X-20.809 Y-4.127 E0.0134
G1 X-20.324 Y-4.355 E0.01337
G1 X-19.81 Y-4.508 E0.01338
G1 X-19.069 Y-4.599 E0.01862
G1 X18.395 Y-4.6 E0.93454
G1 X19.093 Y-4.59 E0.01741
G1 X19.627 Y-4.542 E0.01337
G1 X20.148 Y-4.416 E0.01337
G1 X20.645 Y-4.213 E0.01339
G1 X21.106 Y-3.939 E0.01338
G1 X21.521 Y-3.6 E0.01337
G1 X21.881 Y-3.202 E0.01339
G1 X22.178 Y-2.756 E0.01337
G1 X22.406 Y-2.27 E0.01339
G1 X22.558 Y-1.756 E0.01337
G1 X22.649 Y-1.02 E0.0185
G1 X22.65 Y0.305 E0.03305
G1 X22.641 Y1.035 E0.01821
G1 X22.594 Y1.57 E0.0134
G1 X22.469 Y2.091 E0.01337
G1 X22.267 Y2.588 E0.01338
G1 X21.994 Y3.05 E0.01339
G1 X21.656 Y3.466 E0.01337
G1 X21.259 Y3.826 E0.01337
G1 X20.813 Y4.125 E0.01339
G1 X20.328 Y4.353 E0.01337
G1 X19.814 Y4.507 E0.01338
G1 X19.069 Y4.599 E0.01873
G1 X-18.389 Y4.6 E0.93439
G0 F3600 X-18.384 Y4.2
G1 F900 X-19.082 Y4.191 E0.01741
G1 X-19.586 Y4.144 E0.01263
G1 X-20.076 Y4.019 E0.01261
G1 X-20.54 Y3.818 E0.01261
G1 X-20.966 Y3.547 E0.01259
G1 X-21.345 Y3.212 E0.01262
G1 X-21.666 Y2.821 E0.01262
G1 X-21.921 Y2.385 E0.0126
G1 X-22.105 Y1.914 E0.01261
G1 X-22.212 Y1.42 E0.01261
G1 X-22.249 Y0.969 E0.01129
G1 X-22.25 Y-.369 E0.03338
G1 X-22.241 Y-1.034 E0.01659
G1 X-22.194 Y-1.538 E0.01263
G1 X-22.068 Y-2.027 E0.0126
G1 X-21.867 Y-2.491 E0.01261
G1 X-21.596 Y-2.918 E0.01262
G1 X-21.261 Y-3.296 E0.0126
G1 X-20.87 Y-3.617 E0.01262
G1 X-20.433 Y-3.872 E0.01262
G1 X-19.962 Y-4.056 E0.01261
G1 X-19.468 Y-4.162 E0.0126
G1 X-19.023 Y-4.199 E0.01114
G1 X18.389 Y-4.2 E0.93325
G1 X19.087 Y-4.19 E0.01741
G1 X19.59 Y-4.143 E0.0126
G1 X20.08 Y-4.017 E0.01262
G1 X20.544 Y-3.815 E0.01262
G1 X20.97 Y-3.543 E0.01261
G1 X21.348 Y-3.208 E0.0126
G1 X21.668 Y-2.817 E0.0126
G1 X21.923 Y-2.38 E0.01262
G1 X22.106 Y-1.909 E0.0126
G1 X22.213 Y-1.415 E0.01261
G1 X22.249 Y-.971 E0.01111
G1 X22.25 Y0.3 E0.03171
G1 X22.241 Y1.03 E0.01821
G1 X22.195 Y1.534 E0.01262
G1 X22.07 Y2.024 E0.01261
G1 X21.869 Y2.488 E0.01261
G1 X21.598 Y2.915 E0.01262
G1 X21.263 Y3.293 E0.0126
G1 X20.873 Y3.615 E0.01262
G1 X20.437 Y3.871 E0.01261
G1 X19.966 Y4.054 E0.0126
G1 X19.472 Y4.162 E0.01261
G1 X18.81 Y4.199 E0.01654
G1 X-18.384 Y4.2 E0.92781
G1 F30000 E-4.1
;MESH:Line Test.STL
G0 F3600 X-18.384 Y1.665
G0 X-18.384 Y0.58
G1 F30000 E4.1
G0 F3600 X-18.45 Y-.4
;TYPE:WALL-INNER
G1 F900 X-18.45 Y0.4 E0.01996
G1 X18.45 Y0.4 E0.92047
G1 X18.45 Y0.00 E0.00998
G1 X18.45 Y-.4 E0.00998
G1 X-18.45 Y-.4 E0.92047
G0 F3600 X-18.85 Y-.8
;TYPE:WALL-OUTER
G1 F900 X-18.85 Y0.8 E0.03991
G1 X18.85 Y0.8 E0.94043
G1 X18.85 Y0.00 E0.01996
G1 X18.85 Y-.8 E0.01996
G1 X-18.85 Y-.8 E0.94043
G0 F3600 X-18.85 Y-.6
G0 X-18.05 Y0.00
;TYPE:SKIN
G1 F818.2 X18.05 Y0.00 E0.99057
;TIME_ELAPSED:35.803245
G1 F30000 E-4.1

M83 ;relative extrusion mode
M104 S0
;End of Gcode
;SETTING_3 {"global_quality": "[general]\\nversion = 4\\nname = Jelly\\ndefiniti
;SETTING_3 on = delta_go\\n\\n[metadata]\\ntype = quality_changes\\nquality_type
;SETTING_3  = normal\\nsetting_version = 20\\n\\n[values]\\nadhesion_type = skir
;SETTING_3 t\\n\\n", "extruder_quality": ["[general]\\nversion = 4\\nname = Jell
;SETTING_3 y\\ndefinition = delta_go\\n\\n[metadata]\\ntype = quality_changes\\n
;SETTING_3 quality_type = normal\\nintent_category = default\\nposition = 0\\nse
;SETTING_3 tting_version = 20\\n\\n[values]\\ncool_fan_enabled = False\\ninfill_
;SETTING_3 pattern = trihexagon\\nmaterial_flow = 50\\n\\n"]}
