;FLAVOR:RepRap
;TIME:531
;Filament used: 0.249634m
;Layer height: 0.15
;MINX:-10
;MINY:-10
;MINZ:0.3
;MAXX:10
;MAXY:10
;MAXZ:10.05
;Generated with Cura_SteamEngine main
T0
M104 S200
M109 S200
M82 ;absolute extrusion mode

M83 ;relative extrusion mode
G1 F30000 E-4.1
;LAYER_COUNT:66
;LAYER:0
M107
G1 F600 Z0.5
G0 F3600 X10 Y-5 Z0.5
G1 F600 Z0.3
G0 F3600 X7.956 Y-9.033
;TYPE:SKIRT
G1 F30000 E4.1
G1 F900 X8.441 Y-8.627 E0.03156
G1 X8.871 Y-8.164 E0.03152
G1 X9.24 Y-7.65 E0.03157
G1 X9.54 Y-7.094 E0.03152
G1 X9.768 Y-6.505 E0.03151
G1 X9.92 Y-5.891 E0.03156
G1 X10 Y-5 E0.04463
G1 X10 Y5 E0.4989
G1 X9.96 Y5.631 E0.03154
G1 X9.841 Y6.252 E0.03155
G1 X9.644 Y6.852 E0.03151
G1 X9.373 Y7.424 E0.03158
G1 X9.033 Y7.956 E0.0315
G1 X8.627 Y8.441 E0.03156
G1 X8.164 Y8.871 E0.03152
G1 X7.65 Y9.24 E0.03157
G1 X7.094 Y9.54 E0.03152
G1 X6.505 Y9.768 E0.03151
G1 X5.891 Y9.92 E0.03156
G1 X5 Y10 E0.04463
G1 X-5 Y10 E0.4989
G1 X-5.631 Y9.96 E0.03154
G1 X-6.252 Y9.841 E0.03155
G1 X-6.852 Y9.644 E0.03151
G1 X-7.424 Y9.373 E0.03158
G1 X-7.956 Y9.033 E0.0315
G1 X-8.441 Y8.627 E0.03156
G1 X-8.871 Y8.164 E0.03152
G1 X-9.24 Y7.65 E0.03157
G1 X-9.54 Y7.094 E0.03152
G1 X-9.768 Y6.505 E0.03151
G1 X-9.92 Y5.891 E0.03156
G1 X-10 Y5 E0.04463
G1 X-10 Y-5 E0.4989
G1 X-9.96 Y-5.631 E0.03154
G1 X-9.841 Y-6.252 E0.03155
G1 X-9.644 Y-6.852 E0.03151
G1 X-9.373 Y-7.424 E0.03158
G1 X-9.033 Y-7.956 E0.0315
G1 X-8.627 Y-8.441 E0.03156
G1 X-8.164 Y-8.871 E0.03152
G1 X-7.65 Y-9.24 E0.03157
G1 X-7.094 Y-9.54 E0.03152
G1 X-6.505 Y-9.768 E0.03151
G1 X-5.891 Y-9.92 E0.03156
G1 X-5 Y-10 E0.04463
G1 X5 Y-10 E0.4989
G1 X5.631 Y-9.96 E0.03154
G1 X6.252 Y-9.841 E0.03155
G1 X6.852 Y-9.644 E0.03151
G1 X7.424 Y-9.373 E0.03158
G1 X7.956 Y-9.033 E0.0315
G1 F30000 E-4.1
G0 F3600 X5 Y-9.2
G1 F30000 E4.1
G1 F900 X5.578 Y-9.16 E0.02891
G1 X6.145 Y-9.041 E0.0289
G1 X6.69 Y-8.845 E0.0289
G1 X7.203 Y-8.576 E0.0289
G1 X7.674 Y-8.239 E0.02889
G1 X8.094 Y-7.84 E0.0289
G1 X8.456 Y-7.387 E0.02893
G1 X8.751 Y-6.889 E0.02888
G1 X8.976 Y-6.355 E0.02891
G1 X9.124 Y-5.795 E0.0289
G1 X9.2 Y-5 E0.03984
G1 X9.2 Y5 E0.4989
G1 X9.16 Y5.578 E0.02891
G1 X9.041 Y6.145 E0.0289
G1 X8.845 Y6.69 E0.0289
G1 X8.576 Y7.203 E0.0289
G1 X8.239 Y7.674 E0.02889
G1 X7.84 Y8.094 E0.0289
G1 X7.387 Y8.456 E0.02893
G1 X6.889 Y8.751 E0.02888
G1 X6.355 Y8.976 E0.02891
G1 X5.795 Y9.124 E0.0289
G1 X5 Y9.2 E0.03984
G1 X-5 Y9.2 E0.4989
G1 X-5.578 Y9.16 E0.02891
G1 X-6.145 Y9.041 E0.0289
G1 X-6.69 Y8.845 E0.0289
G1 X-7.203 Y8.576 E0.0289
G1 X-7.674 Y8.239 E0.02889
G1 X-8.094 Y7.84 E0.0289
G1 X-8.456 Y7.387 E0.02893
G1 X-8.751 Y6.889 E0.02888
G1 X-8.976 Y6.355 E0.02891
G1 X-9.124 Y5.795 E0.0289
G1 X-9.2 Y5 E0.03984
G1 X-9.2 Y-5 E0.4989
G1 X-9.16 Y-5.578 E0.02891
G1 X-9.041 Y-6.145 E0.0289
G1 X-8.845 Y-6.69 E0.0289
G1 X-8.576 Y-7.203 E0.0289
G1 X-8.239 Y-7.674 E0.02889
G1 X-7.84 Y-8.094 E0.0289
G1 X-7.387 Y-8.456 E0.02893
G1 X-6.889 Y-8.751 E0.02888
G1 X-6.355 Y-8.976 E0.02891
G1 X-5.795 Y-9.124 E0.0289
G1 X-5 Y-9.2 E0.03984
G1 X5 Y-9.2 E0.4989
G0 F3600 X5 Y-8.8
G1 F900 X5.55 Y-8.76 E0.02751
G1 X6.088 Y-8.641 E0.02749
G1 X6.603 Y-8.445 E0.02749
G1 X7.084 Y-8.177 E0.02747
G1 X7.522 Y-7.843 E0.02748
G1 X7.906 Y-7.448 E0.02748
G1 X8.23 Y-7.002 E0.0275
G1 X8.485 Y-6.514 E0.02747
G1 X8.668 Y-5.994 E0.0275
G1 X8.773 Y-5.453 E0.02749
G1 X8.8 Y-5 E0.02264
G1 X8.8 Y5 E0.4989
G1 X8.76 Y5.55 E0.02751
G1 X8.641 Y6.088 E0.02749
G1 X8.445 Y6.603 E0.02749
G1 X8.177 Y7.084 E0.02747
G1 X7.843 Y7.522 E0.02748
G1 X7.448 Y7.906 E0.02748
G1 X7.002 Y8.23 E0.0275
G1 X6.514 Y8.485 E0.02747
G1 X5.994 Y8.668 E0.0275
G1 X5.453 Y8.773 E0.02749
G1 X5 Y8.8 E0.02264
G1 X-5 Y8.8 E0.4989
G1 X-5.55 Y8.76 E0.02751
G1 X-6.088 Y8.641 E0.02749
G1 X-6.603 Y8.445 E0.02749
G1 X-7.084 Y8.177 E0.02747
G1 X-7.522 Y7.843 E0.02748
G1 X-7.906 Y7.448 E0.02748
G1 X-8.23 Y7.002 E0.0275
G1 X-8.485 Y6.514 E0.02747
G1 X-8.668 Y5.994 E0.0275
G1 X-8.773 Y5.453 E0.02749
G1 X-8.8 Y5 E0.02264
G1 X-8.8 Y-5 E0.4989
G1 X-8.76 Y-5.55 E0.02751
G1 X-8.641 Y-6.088 E0.02749
G1 X-8.445 Y-6.603 E0.02749
G1 X-8.177 Y-7.084 E0.02747
G1 X-7.843 Y-7.522 E0.02748
G1 X-7.448 Y-7.906 E0.02748
G1 X-7.002 Y-8.23 E0.0275
G1 X-6.514 Y-8.485 E0.02747
G1 X-5.994 Y-8.668 E0.0275
G1 X-5.453 Y-8.773 E0.02749
G1 X-5 Y-8.8 E0.02264
G1 X5 Y-8.8 E0.4989
G0 F3600 X5 Y-8.4
G1 F900 X5.52 Y-8.36 E0.02602
G1 X6.027 Y-8.241 E0.02598
G1 X6.51 Y-8.046 E0.02599
G1 X6.958 Y-7.78 E0.02599
G1 X7.36 Y-7.448 E0.02601
G1 X7.706 Y-7.058 E0.02601
G1 X7.989 Y-6.62 E0.02602
G1 X8.202 Y-6.145 E0.02597
G1 X8.339 Y-5.642 E0.02601
G1 X8.4 Y-5 E0.03217
G1 X8.4 Y5 E0.4989
G1 X8.36 Y5.52 E0.02602
G1 X8.241 Y6.027 E0.02598
G1 X8.046 Y6.51 E0.02599
G1 X7.78 Y6.958 E0.02599
G1 X7.448 Y7.36 E0.02601
G1 X7.058 Y7.706 E0.02601
G1 X6.62 Y7.989 E0.02602
G1 X6.145 Y8.202 E0.02597
G1 X5.642 Y8.339 E0.02601
G1 X5 Y8.4 E0.03217
G1 X-5 Y8.4 E0.4989
G1 X-5.52 Y8.36 E0.02602
G1 X-6.027 Y8.241 E0.02598
G1 X-6.51 Y8.046 E0.02599
G1 X-6.958 Y7.78 E0.02599
G1 X-7.36 Y7.448 E0.02601
G1 X-7.706 Y7.058 E0.02601
G1 X-7.989 Y6.62 E0.02602
G1 X-8.202 Y6.145 E0.02597
G1 X-8.339 Y5.642 E0.02601
G1 X-8.4 Y5 E0.03217
G1 X-8.4 Y-5 E0.4989
G1 X-8.36 Y-5.52 E0.02602
G1 X-8.241 Y-6.027 E0.02598
G1 X-8.046 Y-6.51 E0.02599
G1 X-7.78 Y-6.958 E0.02599
G1 X-7.448 Y-7.36 E0.02601
G1 X-7.058 Y-7.706 E0.02601
G1 X-6.62 Y-7.989 E0.02602
G1 X-6.145 Y-8.202 E0.02597
G1 X-5.642 Y-8.339 E0.02601
G1 X-5 Y-8.4 E0.03217
G1 X5 Y-8.4 E0.4989
G0 F3600 X5 Y-8
G1 F900 X5.488 Y-7.96 E0.02443
G1 X5.963 Y-7.841 E0.02443
G1 X6.412 Y-7.647 E0.0244
G1 X6.824 Y-7.382 E0.02444
G1 X7.187 Y-7.054 E0.02441
G1 X7.492 Y-6.671 E0.02443
G1 X7.73 Y-6.243 E0.02443
G1 X7.896 Y-5.783 E0.0244
G1 X8 Y-5.221 E0.02851
G1 X8 Y5 E0.50993
G1 X7.96 Y5.488 E0.02443
G1 X7.841 Y5.963 E0.02443
G1 X7.647 Y6.412 E0.0244
G1 X7.382 Y6.824 E0.02444
G1 X7.054 Y7.187 E0.02441
G1 X6.671 Y7.492 E0.02443
G1 X6.243 Y7.73 E0.02443
G1 X5.783 Y7.896 E0.0244
G1 X5.221 Y8 E0.02851
G1 X-5 Y8 E0.50993
G1 X-5.488 Y7.96 E0.02443
G1 X-5.963 Y7.841 E0.02443
G1 X-6.412 Y7.647 E0.0244
G1 X-6.824 Y7.382 E0.02444
G1 X-7.187 Y7.054 E0.02441
G1 X-7.492 Y6.671 E0.02443
G1 X-7.73 Y6.243 E0.02443
G1 X-7.896 Y5.783 E0.0244
G1 X-8 Y5.221 E0.02851
G1 X-8 Y-5 E0.50993
G1 X-7.96 Y-5.488 E0.02443
G1 X-7.841 Y-5.963 E0.02443
G1 X-7.647 Y-6.412 E0.0244
G1 X-7.382 Y-6.824 E0.02444
G1 X-7.054 Y-7.187 E0.02441
G1 X-6.671 Y-7.492 E0.02443
G1 X-6.243 Y-7.73 E0.02443
G1 X-5.783 Y-7.896 E0.0244
G1 X-5.221 Y-8 E0.02851
G1 X5 Y-8 E0.50993
G0 F3600 X5 Y-7.6
G1 F900 X5.454 Y-7.56 E0.02274
G1 X5.894 Y-7.442 E0.02273
G1 X6.306 Y-7.248 E0.02272
G1 X6.679 Y-6.985 E0.02277
G1 X7 Y-6.662 E0.02272
G1 X7.259 Y-6.287 E0.02274
G1 X7.449 Y-5.873 E0.02273
G1 X7.564 Y-5.432 E0.02274
G1 X7.6 Y-5 E0.02163
G1 X7.6 Y5 E0.4989
G1 X7.56 Y5.454 E0.02274
G1 X7.442 Y5.894 E0.02273
G1 X7.248 Y6.306 E0.02272
G1 X6.985 Y6.679 E0.02277
G1 X6.662 Y7 E0.02272
G1 X6.287 Y7.259 E0.02274
G1 X5.873 Y7.449 E0.02273
G1 X5.432 Y7.564 E0.02274
G1 X5 Y7.6 E0.02163
G1 X-5 Y7.6 E0.4989
G1 X-5.454 Y7.56 E0.02274
G1 X-5.894 Y7.442 E0.02273
G1 X-6.306 Y7.248 E0.02272
G1 X-6.679 Y6.985 E0.02277
G1 X-7 Y6.662 E0.02272
G1 X-7.259 Y6.287 E0.02274
G1 X-7.449 Y5.873 E0.02273
G1 X-7.564 Y5.432 E0.02274
G1 X-7.6 Y5 E0.02163
G1 X-7.6 Y-5 E0.4989
G1 X-7.56 Y-5.454 E0.02274
G1 X-7.442 Y-5.894 E0.02273
G1 X-7.248 Y-6.306 E0.02272
G1 X-6.985 Y-6.679 E0.02277
G1 X-6.662 Y-7 E0.02272
G1 X-6.287 Y-7.259 E0.02274
G1 X-5.873 Y-7.449 E0.02273
G1 X-5.432 Y-7.564 E0.02274
G1 X-5 Y-7.6 E0.02163
G1 X5 Y-7.6 E0.4989
G0 F3600 X5 Y-7.2
G1 F900 X5.417 Y-7.16 E0.0209
G1 X5.819 Y-7.042 E0.0209
G1 X6.191 Y-6.849 E0.02091
G1 X6.52 Y-6.59 E0.02089
G1 X6.794 Y-6.273 E0.0209
G1 X7.003 Y-5.91 E0.0209
G1 X7.139 Y-5.513 E0.02094
G1 X7.2 Y-5 E0.02577
G1 X7.2 Y5 E0.4989
G1 X7.16 Y5.417 E0.0209
G1 X7.042 Y5.819 E0.0209
G1 X6.849 Y6.191 E0.02091
G1 X6.59 Y6.52 E0.02089
G1 X6.273 Y6.794 E0.0209
G1 X5.91 Y7.003 E0.0209
G1 X5.513 Y7.139 E0.02094
G1 X5 Y7.2 E0.02577
G1 X-5 Y7.2 E0.4989
G1 X-5.417 Y7.16 E0.0209
G1 X-5.819 Y7.042 E0.0209
G1 X-6.191 Y6.849 E0.02091
G1 X-6.52 Y6.59 E0.02089
G1 X-6.794 Y6.273 E0.0209
G1 X-7.003 Y5.91 E0.0209
G1 X-7.139 Y5.513 E0.02094
G1 X-7.2 Y5 E0.02577
G1 X-7.2 Y-5 E0.4989
G1 X-7.16 Y-5.417 E0.0209
G1 X-7.042 Y-5.819 E0.0209
G1 X-6.849 Y-6.191 E0.02091
G1 X-6.59 Y-6.52 E0.02089
G1 X-6.273 Y-6.794 E0.0209
G1 X-5.91 Y-7.003 E0.0209
G1 X-5.513 Y-7.139 E0.02094
G1 X-5 Y-7.2 E0.02577
G1 X5 Y-7.2 E0.4989
G0 F3600 X5 Y-6.8
G1 F900 X5.377 Y-6.76 E0.01891
G1 X5.737 Y-6.642 E0.0189
G1 X6.064 Y-6.452 E0.01887
G1 X6.345 Y-6.197 E0.01893
G1 X6.565 Y-5.888 E0.01892
G1 X6.717 Y-5.541 E0.0189
G1 X6.8 Y-5 E0.02731
G1 X6.8 Y5 E0.4989
G1 X6.76 Y5.377 E0.01891
G1 X6.642 Y5.737 E0.0189
G1 X6.452 Y6.064 E0.01887
G1 X6.197 Y6.345 E0.01893
G1 X5.888 Y6.565 E0.01892
G1 X5.541 Y6.717 E0.0189
G1 X5 Y6.8 E0.02731
G1 X-5 Y6.8 E0.4989
G1 X-5.377 Y6.76 E0.01891
G1 X-5.737 Y6.642 E0.0189
G1 X-6.064 Y6.452 E0.01887
G1 X-6.345 Y6.197 E0.01893
G1 X-6.565 Y5.888 E0.01892
G1 X-6.717 Y5.541 E0.0189
G1 X-6.8 Y5 E0.02731
G1 X-6.8 Y-5 E0.4989
G1 X-6.76 Y-5.377 E0.01891
G1 X-6.642 Y-5.737 E0.0189
G1 X-6.452 Y-6.064 E0.01887
G1 X-6.197 Y-6.345 E0.01893
G1 X-5.888 Y-6.565 E0.01892
G1 X-5.541 Y-6.717 E0.0189
G1 X-5 Y-6.8 E0.02731
G1 X5 Y-6.8 E0.4989
G0 F3600 X5 Y-6.4
G1 F900 X5.332 Y-6.36 E0.01668
G1 X5.644 Y-6.243 E0.01662
G1 X5.921 Y-6.055 E0.0167
G1 X6.144 Y-5.807 E0.01664
G1 X6.303 Y-5.513 E0.01668
G1 X6.4 Y-5.139 E0.01928
G1 X6.4 Y5 E0.50584
G1 X6.36 Y5.332 E0.01668
G1 X6.243 Y5.644 E0.01662
G1 X6.055 Y5.921 E0.0167
G1 X5.807 Y6.144 E0.01664
G1 X5.513 Y6.303 E0.01668
G1 X5.139 Y6.4 E0.01928
G1 X-5 Y6.4 E0.50584
G1 X-5.332 Y6.36 E0.01668
G1 X-5.644 Y6.243 E0.01662
G1 X-5.921 Y6.055 E0.0167
G1 X-6.144 Y5.807 E0.01664
G1 X-6.303 Y5.513 E0.01668
G1 X-6.4 Y5.139 E0.01928
G1 X-6.4 Y-5 E0.50584
G1 X-6.36 Y-5.332 E0.01668
G1 X-6.243 Y-5.644 E0.01662
G1 X-6.055 Y-5.921 E0.0167
G1 X-5.807 Y-6.144 E0.01664
G1 X-5.513 Y-6.303 E0.01668
G1 X-5.139 Y-6.4 E0.01928
G1 X5 Y-6.4 E0.50584
G0 F3600 X5 Y-6
G1 F900 X5.279 Y-5.96 E0.01406
G1 X5.536 Y-5.844 E0.01407
G1 X5.751 Y-5.661 E0.01409
G1 X5.905 Y-5.425 E0.01406
G1 X6 Y-5.116 E0.01613
G1 X6 Y5 E0.50469
G1 X5.96 Y5.279 E0.01406
G1 X5.844 Y5.536 E0.01407
G1 X5.661 Y5.751 E0.01409
G1 X5.425 Y5.905 E0.01406
G1 X5.116 Y6 E0.01613
G1 X-5 Y6 E0.50469
G1 X-5.279 Y5.96 E0.01406
G1 X-5.536 Y5.844 E0.01407
G1 X-5.751 Y5.661 E0.01409
G1 X-5.905 Y5.425 E0.01406
G1 X-6 Y5.116 E0.01613
G1 X-6 Y-5 E0.50469
G1 X-5.96 Y-5.279 E0.01406
G1 X-5.844 Y-5.536 E0.01407
G1 X-5.661 Y-5.751 E0.01409
G1 X-5.425 Y-5.905 E0.01406
G1 X-5.116 Y-6 E0.01613
G1 X5 Y-6 E0.50469
G0 F3600 X5 Y-5.6
G1 F900 X5.215 Y-5.56 E0.01091
G1 X5.401 Y-5.447 E0.01086
G1 X5.534 Y-5.274 E0.01089
G1 X5.6 Y-5 E0.01406
G1 X5.6 Y5 E0.4989
G1 X5.56 Y5.215 E0.01091
G1 X5.447 Y5.401 E0.01086
G1 X5.274 Y5.534 E0.01089
G1 X5 Y5.6 E0.01406
G1 X-5 Y5.6 E0.4989
G1 X-5.215 Y5.56 E0.01091
G1 X-5.401 Y5.447 E0.01086
G1 X-5.534 Y5.274 E0.01089
G1 X-5.6 Y5 E0.01406
G1 X-5.6 Y-5 E0.4989
G1 X-5.56 Y-5.215 E0.01091
G1 X-5.447 Y-5.401 E0.01086
G1 X-5.274 Y-5.534 E0.01089
G1 X-5 Y-5.6 E0.01406
G1 X5 Y-5.6 E0.4989
G0 F3600 X5 Y-5.2
G1 F900 X5.119 Y-5.161 E0.00625
G1 X5.2 Y-5 E0.00899
G1 X5.2 Y5 E0.4989
G1 X5.161 Y5.119 E0.00625
G1 X5 Y5.2 E0.00899
G1 X-5 Y5.2 E0.4989
G1 X-5.119 Y5.161 E0.00625
G1 X-5.2 Y5 E0.00899
G1 X-5.2 Y-5 E0.4989
G1 X-5.161 Y-5.119 E0.00625
G1 X-5 Y-5.2 E0.00899
G1 X5 Y-5.2 E0.4989
G1 F30000 E-4.1
G0 F3600 X5 Y-5.665
G0 X5 Y-9.6
G1 F30000 E4.1
G1 F900 X5.605 Y-9.56 E0.03025
G1 X6.199 Y-9.441 E0.03022
G1 X6.773 Y-9.245 E0.03026
G1 X7.316 Y-8.974 E0.03028
G1 X7.819 Y-8.635 E0.03026
G1 X8.272 Y-8.233 E0.03022
G1 X8.669 Y-7.775 E0.03024
G1 X9.002 Y-7.268 E0.03026
G1 X9.266 Y-6.722 E0.03026
G1 X9.455 Y-6.146 E0.03024
G1 X9.567 Y-5.55 E0.03026
G1 X9.6 Y-5 E0.02749
G1 X9.6 Y5 E0.4989
G1 X9.56 Y5.605 E0.03025
G1 X9.441 Y6.199 E0.03022
G1 X9.245 Y6.773 E0.03026
G1 X8.974 Y7.316 E0.03028
G1 X8.635 Y7.819 E0.03026
G1 X8.233 Y8.272 E0.03022
G1 X7.775 Y8.669 E0.03024
G1 X7.268 Y9.002 E0.03026
G1 X6.722 Y9.266 E0.03026
G1 X6.146 Y9.455 E0.03024
G1 X5.55 Y9.567 E0.03026
G1 X5 Y9.6 E0.02749
G1 X-5 Y9.6 E0.4989
G1 X-5.605 Y9.56 E0.03025
G1 X-6.199 Y9.441 E0.03022
G1 X-6.773 Y9.245 E0.03026
G1 X-7.316 Y8.974 E0.03028
G1 X-7.819 Y8.635 E0.03026
G1 X-8.272 Y8.233 E0.03022
G1 X-8.669 Y7.775 E0.03024
G1 X-9.002 Y7.268 E0.03026
G1 X-9.266 Y6.722 E0.03026
G1 X-9.455 Y6.146 E0.03024
G1 X-9.567 Y5.55 E0.03026
G1 X-9.6 Y5 E0.02749
G1 X-9.6 Y-5 E0.4989
G1 X-9.56 Y-5.605 E0.03025
G1 X-9.441 Y-6.199 E0.03022
G1 X-9.245 Y-6.773 E0.03026
G1 X-8.974 Y-7.316 E0.03028
G1 X-8.635 Y-7.819 E0.03026
G1 X-8.233 Y-8.272 E0.03022
G1 X-7.775 Y-8.669 E0.03024
G1 X-7.268 Y-9.002 E0.03026
G1 X-6.722 Y-9.266 E0.03026
G1 X-6.146 Y-9.455 E0.03024
G1 X-5.55 Y-9.567 E0.03026
G1 X-5 Y-9.6 E0.02749
G1 X5 Y-9.6 E0.4989
G1 F30000 E-4.1
;MESH:3DFP Test Cube.STL
G0 F3600 X4.586 Y-5.665
G0 X4.586 Y-4.586
G0 X-4.13 Y-4.13
G1 F30000 E4.1
G0 F3600 X-4.4 Y-4.4
;TYPE:WALL-INNER
G1 F900 X-4.4 Y0.00 E0.21952
G1 X-4.4 Y4.4 E0.21952
G1 X4.4 Y4.4 E0.43903
G1 X4.4 Y-4.4 E0.43903
G1 X-4.4 Y-4.4 E0.43903
G0 F3600 X-4.8 Y-4.8
;TYPE:WALL-OUTER
G1 F900 X-4.8 Y0.00 E0.23947
G1 X-4.8 Y4.8 E0.23947
G1 X4.8 Y4.8 E0.47895
G1 X4.8 Y-4.8 E0.47895
G1 X-4.8 Y-4.8 E0.47895
G0 F3600 X-4.8 Y-4.6
G0 X-4.02 Y-4.02
;TYPE:SKIN
G1 F900 X-4.02 Y4.02 E0.40112
G1 X4.02 Y4.02 E0.40112
G1 X4.02 Y0.00 E0.20056
G1 X4.02 Y-4.02 E0.20056
G1 X-4.02 Y-4.02 E0.40112
G0 F3600 X3.534 Y-3.819
G1 F900 X3.819 Y-3.534 E0.02011
G0 F3600 X3.819 Y-2.968
G1 F900 X2.968 Y-3.819 E0.06004
G0 F3600 X2.402 Y-3.819
G1 F900 X3.819 Y-2.402 E0.09998
G0 F3600 X3.819 Y-1.837
G1 F900 X1.837 Y-3.819 E0.13984
G0 F3600 X1.271 Y-3.819
G1 F900 X3.819 Y-1.271 E0.17978
G0 F3600 X3.819 Y-.705
G1 F900 X0.705 Y-3.819 E0.21971
G0 F3600 X0.14 Y-3.819
G1 F900 X3.819 Y-.14 E0.25957
G0 F3600 X3.819 Y0.425
G1 F900 X-.425 Y-3.819 E0.29944
G0 F3600 X-.991 Y-3.819
G1 F900 X3.819 Y0.991 E0.33937
G0 F3600 X3.819 Y1.557
G1 F900 X-1.557 Y-3.819 E0.37931
G0 F3600 X-2.122 Y-3.819
G1 F900 X3.819 Y2.122 E0.41917
G0 F3600 X3.819 Y2.688
G1 F900 X-2.688 Y-3.819 E0.4591
G0 F3600 X-3.254 Y-3.819
G1 F900 X3.819 Y3.254 E0.49904
G0 F3600 X3.819 Y3.819
G1 F900 X-3.819 Y-3.819 E0.5389
G0 F3600 X-3.819 Y-3.254
G1 F900 X3.254 Y3.819 E0.49904
G0 F3600 X2.688 Y3.819
G1 F900 X-3.819 Y-2.688 E0.4591
G0 F3600 X-3.819 Y-2.122
G1 F900 X2.122 Y3.819 E0.41917
G0 F3600 X1.557 Y3.819
G1 F900 X-3.819 Y-1.557 E0.37931
G0 F3600 X-3.819 Y-.991
G1 F900 X0.991 Y3.819 E0.33937
G0 F3600 X0.425 Y3.819
G1 F900 X-3.819 Y-.425 E0.29944
G0 F3600 X-3.819 Y0.14
G1 F900 X-.14 Y3.819 E0.25957
G0 F3600 X-.705 Y3.819
G1 F900 X-3.819 Y0.705 E0.21971
G0 F3600 X-3.819 Y1.271
G1 F900 X-1.271 Y3.819 E0.17978
G0 F3600 X-1.837 Y3.819
G1 F900 X-3.819 Y1.837 E0.13984
G0 F3600 X-3.819 Y2.402
G1 F900 X-2.402 Y3.819 E0.09998
G0 F3600 X-2.968 Y3.819
G1 F900 X-3.819 Y2.968 E0.06004
G0 F3600 X-3.819 Y3.534
G1 F900 X-3.534 Y3.819 E0.02011
G0 F3600 X-3.534 Y3.8
;MESH:NONMESH
G0 F600 X-3.534 Y3.8 Z0.45
G0 F3600 X-4.13 Y-4.13
G0 X-4.4 Y-4.4
;TIME_ELAPSED:69.774312
;LAYER:1
M106 S255
;TYPE:WALL-INNER
;MESH:3DFP Test Cube.STL
G1 F1350 X-4.4 Y4.4 E0.21952
G1 X4.4 Y4.4 E0.21952
G1 X4.4 Y0.00 E0.10976
G1 X4.4 Y-4.4 E0.10976
G1 X-4.4 Y-4.4 E0.21952
G0 F5400 X-4.8 Y-4.8
;TYPE:WALL-OUTER
G1 F900 X-4.8 Y4.8 E0.23947
G1 X4.8 Y4.8 E0.23947
G1 X4.8 Y0.00 E0.11974
G1 X4.8 Y-4.8 E0.11974
G1 X-4.8 Y-4.8 E0.23947
G0 F5400 X-4.8 Y-4.6
G0 X-4.02 Y-4.02
;TYPE:SKIN
G1 F900 X-4.02 Y4.02 E0.20056
G1 X4.02 Y4.02 E0.20056
G1 X4.02 Y0.00 E0.10028
G1 X4.02 Y-4.02 E0.10028
G1 X-4.02 Y-4.02 E0.20056
G0 F5400 X-3.819 Y-3.534
G1 F900 X-3.534 Y-3.819 E0.01005
G0 F5400 X-2.968 Y-3.819
G1 F900 X-3.819 Y-2.968 E0.03002
G0 F5400 X-3.819 Y-2.402
G1 F900 X-2.402 Y-3.819 E0.04999
G0 F5400 X-1.837 Y-3.819
G1 F900 X-3.819 Y-1.837 E0.06992
G0 F5400 X-3.819 Y-1.271
G1 F900 X-1.271 Y-3.819 E0.08989
G0 F5400 X-.705 Y-3.819
G1 F900 X-3.819 Y-.705 E0.10985
G0 F5400 X-3.819 Y-.14
G1 F900 X-.14 Y-3.819 E0.12979
G0 F5400 X0.425 Y-3.819
G1 F900 X-3.819 Y0.425 E0.14972
G0 F5400 X-3.819 Y0.991
